images/50600659.svg

<?xml version="1.0" encoding="UTF-8"?>
<svg xmlns="http://www.w3.org/2000/svg" xmlns:xlink="http://www.w3.org/1999/xlink" width="300pt" height="300pt" viewBox="0 0 300 300" version="1.1">
<defs>
<g>
<symbol overflow="visible" id="glyph0-0">
<path style="stroke:none;" d="M 0.453125 1.59375 L 0.453125 -6.34375 L 4.953125 -6.34375 L 4.953125 1.59375 Z M 0.953125 1.09375 L 4.453125 1.09375 L 4.453125 -5.84375 L 0.953125 -5.84375 Z M 0.953125 1.09375 "/>
</symbol>
<symbol overflow="visible" id="glyph0-1">
<path style="stroke:none;" d="M 4.8125 -6.34375 L 4.8125 -5.484375 C 4.476562 -5.640625 4.160156 -5.753906 3.859375 -5.828125 C 3.566406 -5.910156 3.28125 -5.953125 3 -5.953125 C 2.507812 -5.953125 2.132812 -5.859375 1.875 -5.671875 C 1.613281 -5.484375 1.484375 -5.21875 1.484375 -4.875 C 1.484375 -4.582031 1.570312 -4.363281 1.75 -4.21875 C 1.925781 -4.070312 2.253906 -3.953125 2.734375 -3.859375 L 3.28125 -3.75 C 3.9375 -3.625 4.421875 -3.398438 4.734375 -3.078125 C 5.054688 -2.765625 5.21875 -2.34375 5.21875 -1.8125 C 5.21875 -1.175781 5.003906 -0.691406 4.578125 -0.359375 C 4.148438 -0.0351562 3.523438 0.125 2.703125 0.125 C 2.390625 0.125 2.054688 0.0859375 1.703125 0.015625 C 1.359375 -0.046875 1 -0.148438 0.625 -0.296875 L 0.625 -1.203125 C 0.976562 -1.003906 1.328125 -0.851562 1.671875 -0.75 C 2.023438 -0.644531 2.367188 -0.59375 2.703125 -0.59375 C 3.203125 -0.59375 3.585938 -0.691406 3.859375 -0.890625 C 4.140625 -1.085938 4.28125 -1.375 4.28125 -1.75 C 4.28125 -2.070312 4.179688 -2.320312 3.984375 -2.5 C 3.785156 -2.675781 3.460938 -2.8125 3.015625 -2.90625 L 2.46875 -3.015625 C 1.8125 -3.148438 1.332031 -3.359375 1.03125 -3.640625 C 0.738281 -3.921875 0.59375 -4.3125 0.59375 -4.8125 C 0.59375 -5.382812 0.796875 -5.835938 1.203125 -6.171875 C 1.609375 -6.515625 2.171875 -6.6875 2.890625 -6.6875 C 3.203125 -6.6875 3.515625 -6.65625 3.828125 -6.59375 C 4.148438 -6.539062 4.476562 -6.457031 4.8125 -6.34375 Z M 4.8125 -6.34375 "/>
</symbol>
<symbol overflow="visible" id="glyph0-2">
<path style="stroke:none;" d="M 0.890625 -6.5625 L 2.078125 -6.5625 L 4.984375 -1.078125 L 4.984375 -6.5625 L 5.84375 -6.5625 L 5.84375 0 L 4.65625 0 L 1.75 -5.484375 L 1.75 0 L 0.890625 0 Z M 0.890625 -6.5625 "/>
</symbol>
<symbol overflow="visible" id="glyph0-3">
<path style="stroke:none;" d="M 0.890625 -6.5625 L 1.765625 -6.5625 L 1.765625 -3.875 L 5 -3.875 L 5 -6.5625 L 5.890625 -6.5625 L 5.890625 0 L 5 0 L 5 -3.125 L 1.765625 -3.125 L 1.765625 0 L 0.890625 0 Z M 0.890625 -6.5625 "/>
</symbol>
</g>
</defs>
<g id="surface24869">
<rect x="0" y="0" width="300" height="300" style="fill:rgb(100%,100%,100%);fill-opacity:1;stroke:none;"/>
<path style="fill:none;stroke-width:1.2;stroke-linecap:butt;stroke-linejoin:miter;stroke:rgb(80%,80%,0%);stroke-opacity:1;stroke-miterlimit:10;" d="M 137.398438 155.0625 L 142.246094 144.191406 "/>
<path style="fill:none;stroke-width:1.2;stroke-linecap:butt;stroke-linejoin:miter;stroke:rgb(0%,0%,0%);stroke-opacity:1;stroke-miterlimit:10;" d="M 142.246094 144.191406 L 147.09375 133.316406 "/>
<path style="fill:none;stroke-width:1.2;stroke-linecap:butt;stroke-linejoin:miter;stroke:rgb(0%,0%,0%);stroke-opacity:1;stroke-miterlimit:10;" d="M 113.714844 152.5625 L 125.558594 153.8125 "/>
<path style="fill:none;stroke-width:1.2;stroke-linecap:butt;stroke-linejoin:miter;stroke:rgb(80%,80%,0%);stroke-opacity:1;stroke-miterlimit:10;" d="M 125.558594 153.8125 L 137.398438 155.0625 "/>
<path style=" stroke:none;fill-rule:nonzero;fill:rgb(100%,100%,100%);fill-opacity:1;" d="M 134.398438 149.5625 L 140.398438 149.5625 L 140.398438 160.5625 L 134.398438 160.5625 Z M 134.398438 149.5625 "/>
<g style="fill:rgb(80%,80%,0%);fill-opacity:1;">
  <use xlink:href="#glyph0-1" x="134.398438" y="158.225586"/>
</g>
<path style="fill:none;stroke-width:1.2;stroke-linecap:butt;stroke-linejoin:miter;stroke:rgb(0%,0%,0%);stroke-opacity:1;stroke-miterlimit:10;" d="M 147.09375 133.316406 L 129.410156 117.371094 "/>
<path style="fill:none;stroke-width:1.2;stroke-linecap:butt;stroke-linejoin:miter;stroke:rgb(0%,0%,0%);stroke-opacity:1;stroke-miterlimit:10;" d="M 141.574219 135.882812 L 127.425781 123.128906 "/>
<path style="fill:none;stroke-width:1.2;stroke-linecap:butt;stroke-linejoin:miter;stroke:rgb(0%,0%,0%);stroke-opacity:1;stroke-miterlimit:10;" d="M 147.09375 133.316406 L 170.390625 128.378906 "/>
<path style="fill:none;stroke-width:1.2;stroke-linecap:butt;stroke-linejoin:miter;stroke:rgb(0%,0%,0%);stroke-opacity:1;stroke-miterlimit:10;" d="M 129.410156 117.371094 L 119.09375 123.320312 "/>
<path style="fill:none;stroke-width:1.2;stroke-linecap:butt;stroke-linejoin:miter;stroke:rgb(0%,0%,100%);stroke-opacity:1;stroke-miterlimit:10;" d="M 119.09375 123.320312 L 108.78125 129.265625 "/>
<path style="fill:none;stroke-width:1.2;stroke-linecap:butt;stroke-linejoin:miter;stroke:rgb(0%,0%,100%);stroke-opacity:1;stroke-miterlimit:10;" d="M 108.78125 129.265625 L 111.246094 140.914062 "/>
<path style="fill:none;stroke-width:1.2;stroke-linecap:butt;stroke-linejoin:miter;stroke:rgb(0%,0%,0%);stroke-opacity:1;stroke-miterlimit:10;" d="M 111.246094 140.914062 L 113.714844 152.5625 "/>
<path style="fill:none;stroke-width:1.2;stroke-linecap:butt;stroke-linejoin:miter;stroke:rgb(0%,0%,100%);stroke-opacity:1;stroke-miterlimit:10;" d="M 114.753906 130.433594 L 116.730469 139.75 "/>
<path style="fill:none;stroke-width:1.2;stroke-linecap:butt;stroke-linejoin:miter;stroke:rgb(0%,0%,0%);stroke-opacity:1;stroke-miterlimit:10;" d="M 116.730469 139.75 L 118.703125 149.070312 "/>
<path style=" stroke:none;fill-rule:nonzero;fill:rgb(100%,100%,100%);fill-opacity:1;" d="M 105.78125 123.765625 L 112.78125 123.765625 L 112.78125 134.765625 L 105.78125 134.765625 Z M 105.78125 123.765625 "/>
<g style="fill:rgb(0%,0%,100%);fill-opacity:1;">
  <use xlink:href="#glyph0-2" x="105.78125" y="132.428711"/>
</g>
<path style="fill:none;stroke-width:1.2;stroke-linecap:butt;stroke-linejoin:miter;stroke:rgb(0%,0%,0%);stroke-opacity:1;stroke-miterlimit:10;" d="M 113.714844 152.5625 L 105.746094 161.40625 "/>
<path style="fill:none;stroke-width:1.2;stroke-linecap:butt;stroke-linejoin:miter;stroke:rgb(0%,0%,100%);stroke-opacity:1;stroke-miterlimit:10;" d="M 105.746094 161.40625 L 97.773438 170.246094 "/>
<path style="fill:none;stroke-width:1.2;stroke-linecap:butt;stroke-linejoin:miter;stroke:rgb(0%,0%,100%);stroke-opacity:1;stroke-miterlimit:10;" d="M 97.773438 170.246094 L 86.128906 167.765625 "/>
<path style="fill:none;stroke-width:1.2;stroke-linecap:butt;stroke-linejoin:miter;stroke:rgb(0%,0%,0%);stroke-opacity:1;stroke-miterlimit:10;" d="M 86.128906 167.765625 L 74.484375 165.28125 "/>
<path style=" stroke:none;fill-rule:nonzero;fill:rgb(100%,100%,100%);fill-opacity:1;" d="M 90.773438 164.746094 L 104.773438 164.746094 L 104.773438 175.746094 L 90.773438 175.746094 Z M 90.773438 164.746094 "/>
<g style="fill:rgb(0%,0%,100%);fill-opacity:1;">
  <use xlink:href="#glyph0-2" x="90.773438" y="173.40918"/>
  <use xlink:href="#glyph0-3" x="97.750977" y="173.40918"/>
</g>
<path style="fill:none;stroke-width:1.2;stroke-linecap:butt;stroke-linejoin:miter;stroke:rgb(0%,0%,0%);stroke-opacity:1;stroke-miterlimit:10;" d="M 74.484375 165.28125 L 58.539062 182.96875 "/>
<path style="fill:none;stroke-width:1.2;stroke-linecap:butt;stroke-linejoin:miter;stroke:rgb(0%,0%,0%);stroke-opacity:1;stroke-miterlimit:10;" d="M 58.539062 182.96875 L 35.25 178.003906 "/>
<path style="fill:none;stroke-width:1.2;stroke-linecap:butt;stroke-linejoin:miter;stroke:rgb(0%,0%,0%);stroke-opacity:1;stroke-miterlimit:10;" d="M 170.390625 128.378906 L 178.351562 137.230469 "/>
<path style="fill:none;stroke-width:1.2;stroke-linecap:butt;stroke-linejoin:miter;stroke:rgb(0%,0%,100%);stroke-opacity:1;stroke-miterlimit:10;" d="M 178.351562 137.230469 L 186.3125 146.085938 "/>
<path style="fill:none;stroke-width:1.2;stroke-linecap:butt;stroke-linejoin:miter;stroke:rgb(0%,0%,0%);stroke-opacity:1;stroke-miterlimit:10;" d="M 176.148438 126.402344 L 182.519531 133.484375 "/>
<path style="fill:none;stroke-width:1.2;stroke-linecap:butt;stroke-linejoin:miter;stroke:rgb(0%,0%,100%);stroke-opacity:1;stroke-miterlimit:10;" d="M 182.519531 133.484375 L 188.886719 140.566406 "/>
<path style="fill:none;stroke-width:1.2;stroke-linecap:butt;stroke-linejoin:miter;stroke:rgb(0%,0%,0%);stroke-opacity:1;stroke-miterlimit:10;" d="M 177.761719 105.734375 L 170.390625 128.378906 "/>
<path style="fill:none;stroke-width:1.2;stroke-linecap:butt;stroke-linejoin:miter;stroke:rgb(0%,0%,100%);stroke-opacity:1;stroke-miterlimit:10;" d="M 186.3125 146.085938 L 197.960938 143.617188 "/>
<path style="fill:none;stroke-width:1.2;stroke-linecap:butt;stroke-linejoin:miter;stroke:rgb(0%,0%,0%);stroke-opacity:1;stroke-miterlimit:10;" d="M 197.960938 143.617188 L 209.609375 141.148438 "/>
<path style=" stroke:none;fill-rule:nonzero;fill:rgb(100%,100%,100%);fill-opacity:1;" d="M 183.3125 140.585938 L 190.3125 140.585938 L 190.3125 151.585938 L 183.3125 151.585938 Z M 183.3125 140.585938 "/>
<g style="fill:rgb(0%,0%,100%);fill-opacity:1;">
  <use xlink:href="#glyph0-2" x="183.3125" y="149.249023"/>
</g>
<path style="fill:none;stroke-width:1.2;stroke-linecap:butt;stroke-linejoin:miter;stroke:rgb(0%,0%,0%);stroke-opacity:1;stroke-miterlimit:10;" d="M 209.609375 141.148438 L 213.292969 129.824219 "/>
<path style="fill:none;stroke-width:1.2;stroke-linecap:butt;stroke-linejoin:miter;stroke:rgb(0%,0%,100%);stroke-opacity:1;stroke-miterlimit:10;" d="M 213.292969 129.824219 L 216.980469 118.503906 "/>
<path style="fill:none;stroke-width:1.2;stroke-linecap:butt;stroke-linejoin:miter;stroke:rgb(0%,0%,0%);stroke-opacity:1;stroke-miterlimit:10;" d="M 205.019531 137.148438 L 207.964844 128.089844 "/>
<path style="fill:none;stroke-width:1.2;stroke-linecap:butt;stroke-linejoin:miter;stroke:rgb(0%,0%,100%);stroke-opacity:1;stroke-miterlimit:10;" d="M 207.964844 128.089844 L 210.914062 119.035156 "/>
<path style="fill:none;stroke-width:1.2;stroke-linecap:butt;stroke-linejoin:miter;stroke:rgb(0%,0%,0%);stroke-opacity:1;stroke-miterlimit:10;" d="M 209.609375 141.148438 L 225.53125 158.851562 "/>
<path style="fill:none;stroke-width:1.2;stroke-linecap:butt;stroke-linejoin:miter;stroke:rgb(0%,0%,100%);stroke-opacity:1;stroke-miterlimit:10;" d="M 216.980469 118.503906 L 209.019531 109.652344 "/>
<path style="fill:none;stroke-width:1.2;stroke-linecap:butt;stroke-linejoin:miter;stroke:rgb(0%,0%,0%);stroke-opacity:1;stroke-miterlimit:10;" d="M 209.019531 109.652344 L 201.058594 100.800781 "/>
<path style=" stroke:none;fill-rule:nonzero;fill:rgb(100%,100%,100%);fill-opacity:1;" d="M 213.980469 113.003906 L 220.980469 113.003906 L 220.980469 124.003906 L 213.980469 124.003906 Z M 213.980469 113.003906 "/>
<g style="fill:rgb(0%,0%,100%);fill-opacity:1;">
  <use xlink:href="#glyph0-2" x="213.980469" y="121.666992"/>
</g>
<path style="fill:none;stroke-width:1.2;stroke-linecap:butt;stroke-linejoin:miter;stroke:rgb(0%,0%,0%);stroke-opacity:1;stroke-miterlimit:10;" d="M 201.058594 100.800781 L 177.761719 105.734375 "/>
<path style="fill:none;stroke-width:1.2;stroke-linecap:butt;stroke-linejoin:miter;stroke:rgb(0%,0%,0%);stroke-opacity:1;stroke-miterlimit:10;" d="M 199.890625 106.773438 L 181.253906 110.722656 "/>
<path style="fill:none;stroke-width:1.2;stroke-linecap:butt;stroke-linejoin:miter;stroke:rgb(0%,0%,0%);stroke-opacity:1;stroke-miterlimit:10;" d="M 225.53125 158.851562 L 221.847656 170.175781 "/>
<path style="fill:none;stroke-width:1.2;stroke-linecap:butt;stroke-linejoin:miter;stroke:rgb(0%,0%,100%);stroke-opacity:1;stroke-miterlimit:10;" d="M 221.847656 170.175781 L 218.160156 181.496094 "/>
<path style="fill:none;stroke-width:1.2;stroke-linecap:butt;stroke-linejoin:miter;stroke:rgb(0%,0%,0%);stroke-opacity:1;stroke-miterlimit:10;" d="M 230.121094 162.851562 L 227.171875 171.910156 "/>
<path style="fill:none;stroke-width:1.2;stroke-linecap:butt;stroke-linejoin:miter;stroke:rgb(0%,0%,100%);stroke-opacity:1;stroke-miterlimit:10;" d="M 227.171875 171.910156 L 224.226562 180.964844 "/>
<path style="fill:none;stroke-width:1.2;stroke-linecap:butt;stroke-linejoin:miter;stroke:rgb(0%,0%,0%);stroke-opacity:1;stroke-miterlimit:10;" d="M 248.828125 153.914062 L 225.53125 158.851562 "/>
<path style="fill:none;stroke-width:1.2;stroke-linecap:butt;stroke-linejoin:miter;stroke:rgb(0%,0%,100%);stroke-opacity:1;stroke-miterlimit:10;" d="M 218.160156 181.496094 L 226.121094 190.347656 "/>
<path style="fill:none;stroke-width:1.2;stroke-linecap:butt;stroke-linejoin:miter;stroke:rgb(0%,0%,0%);stroke-opacity:1;stroke-miterlimit:10;" d="M 226.121094 190.347656 L 234.082031 199.199219 "/>
<path style=" stroke:none;fill-rule:nonzero;fill:rgb(100%,100%,100%);fill-opacity:1;" d="M 215.160156 175.996094 L 222.160156 175.996094 L 222.160156 186.996094 L 215.160156 186.996094 Z M 215.160156 175.996094 "/>
<g style="fill:rgb(0%,0%,100%);fill-opacity:1;">
  <use xlink:href="#glyph0-2" x="215.160156" y="184.65918"/>
</g>
<path style="fill:none;stroke-width:1.2;stroke-linecap:butt;stroke-linejoin:miter;stroke:rgb(0%,0%,0%);stroke-opacity:1;stroke-miterlimit:10;" d="M 234.082031 199.199219 L 257.378906 194.265625 "/>
<path style="fill:none;stroke-width:1.2;stroke-linecap:butt;stroke-linejoin:miter;stroke:rgb(0%,0%,0%);stroke-opacity:1;stroke-miterlimit:10;" d="M 235.25 193.226562 L 253.886719 189.277344 "/>
<path style="fill:none;stroke-width:1.2;stroke-linecap:butt;stroke-linejoin:miter;stroke:rgb(0%,0%,0%);stroke-opacity:1;stroke-miterlimit:10;" d="M 257.378906 194.265625 L 264.75 171.621094 "/>
<path style="fill:none;stroke-width:1.2;stroke-linecap:butt;stroke-linejoin:miter;stroke:rgb(0%,0%,0%);stroke-opacity:1;stroke-miterlimit:10;" d="M 264.75 171.621094 L 248.828125 153.914062 "/>
<path style="fill:none;stroke-width:1.2;stroke-linecap:butt;stroke-linejoin:miter;stroke:rgb(0%,0%,0%);stroke-opacity:1;stroke-miterlimit:10;" d="M 258.992188 173.597656 L 246.253906 159.433594 "/>
</g>
</svg>

<svg xmlns="http://www.w3.org/2000/svg" xmlns:xlink="http://www.w3.org/1999/xlink" width="300pt" height="300pt" viewBox="0 0 300 300"><defs><symbol overflow="visible"><path d="M.453 1.594v-7.938h4.5v7.938zm.5-.5h3.5v-6.938h-3.5zm0 0"/></symbol><symbol overflow="visible" id="a"><path d="M4.813-6.344v.86c-.336-.157-.653-.27-.954-.344-.294-.082-.58-.125-.86-.125-.492 0-.867.094-1.125.28-.262.19-.39.454-.39.798 0 .293.085.512.265.656.176.15.504.267.984.36l.547.11c.658.125 1.142.352 1.454.672.32.312.485.734.485 1.265 0 .637-.216 1.122-.642 1.454-.43.325-1.055.485-1.875.485-.312 0-.648-.04-1-.11C1.36-.046 1-.147.625-.296v-.906c.352.2.703.35 1.047.453.35.105.695.156 1.03.156.5 0 .884-.097 1.157-.297.28-.196.42-.485.42-.86 0-.32-.1-.57-.296-.75-.2-.176-.523-.313-.968-.406l-.547-.11C1.81-3.148 1.33-3.36 1.03-3.64.74-3.923.595-4.313.595-4.813c0-.57.203-1.024.61-1.36.405-.344.968-.516 1.687-.516.313 0 .626.032.938.094.32.055.65.137.985.25zm0 0"/></symbol><symbol overflow="visible" id="b"><path d="M.89-6.563H2.08l2.906 5.485v-5.484h.86V0H4.656L1.75-5.484V0H.89zm0 0"/></symbol><symbol overflow="visible" id="c"><path d="M.89-6.563h.876v2.688H5v-2.688h.89V0H5v-3.125H1.766V0H.89zm0 0"/></symbol></defs><g><path fill="#fff" d="M0 0h300v300H0z"/><path d="M137.398 155.063l4.848-10.872" stroke-width="1.2" stroke="#cc0" stroke-miterlimit="10" fill="none"/><path d="M142.246 144.19l4.848-10.874M113.715 152.563l11.844 1.25" stroke-width="1.2" stroke="#000" stroke-miterlimit="10" fill="none"/><path d="M125.56 153.813l11.838 1.25" stroke-width="1.2" stroke="#cc0" stroke-miterlimit="10" fill="none"/><path d="M134.398 149.563h6v11h-6zm0 0" fill="#fff"/><use xlink:href="#a" x="134.398" y="158.226" fill="#cc0"/><path d="M147.094 133.316L129.41 117.37M141.574 135.883l-14.148-12.754M147.094 133.316l23.297-4.937M129.41 117.37l-10.316 5.95" stroke-width="1.2" stroke="#000" stroke-miterlimit="10" fill="none"/><path d="M119.094 123.32l-10.313 5.946M108.78 129.266l2.466 11.648" stroke-width="1.2" stroke="#00f" stroke-miterlimit="10" fill="none"/><path d="M111.246 140.914l2.47 11.65" stroke-width="1.2" stroke="#000" stroke-miterlimit="10" fill="none"/><path d="M114.754 130.434l1.976 9.316" stroke-width="1.2" stroke="#00f" stroke-miterlimit="10" fill="none"/><path d="M116.73 139.75l1.973 9.32" stroke-width="1.2" stroke="#000" stroke-miterlimit="10" fill="none"/><path d="M105.78 123.766h7v11h-7zm0 0" fill="#fff"/><use xlink:href="#b" x="105.781" y="132.429" fill="#00f"/><path d="M113.715 152.563l-7.97 8.843" stroke-width="1.2" stroke="#000" stroke-miterlimit="10" fill="none"/><path d="M105.746 161.406l-7.973 8.84M97.773 170.246l-11.644-2.48" stroke-width="1.2" stroke="#00f" stroke-miterlimit="10" fill="none"/><path d="M86.13 167.766l-11.646-2.485" stroke-width="1.2" stroke="#000" stroke-miterlimit="10" fill="none"/><path d="M90.773 164.746h14v11h-14zm0 0" fill="#fff"/><g fill="#00f"><use xlink:href="#b" x="90.773" y="173.409"/><use xlink:href="#c" x="97.751" y="173.409"/></g><path d="M74.484 165.28L58.54 182.97M58.54 182.97l-23.29-4.966M170.39 128.38l7.962 8.85" stroke-width="1.2" stroke="#000" stroke-miterlimit="10" fill="none"/><path d="M178.352 137.23l7.96 8.856" stroke-width="1.2" stroke="#00f" stroke-miterlimit="10" fill="none"/><path d="M176.148 126.402l6.372 7.082" stroke-width="1.2" stroke="#000" stroke-miterlimit="10" fill="none"/><path d="M182.52 133.484l6.367 7.082" stroke-width="1.2" stroke="#00f" stroke-miterlimit="10" fill="none"/><path d="M177.762 105.734l-7.37 22.645" stroke-width="1.2" stroke="#000" stroke-miterlimit="10" fill="none"/><path d="M186.313 146.086l11.648-2.47" stroke-width="1.2" stroke="#00f" stroke-miterlimit="10" fill="none"/><path d="M197.96 143.617l11.65-2.47" stroke-width="1.2" stroke="#000" stroke-miterlimit="10" fill="none"/><path d="M183.313 140.586h7v11h-7zm0 0" fill="#fff"/><use xlink:href="#b" x="183.313" y="149.249" fill="#00f"/><path d="M209.61 141.148l3.683-11.324" stroke-width="1.2" stroke="#000" stroke-miterlimit="10" fill="none"/><path d="M213.293 129.824l3.687-11.32" stroke-width="1.2" stroke="#00f" stroke-miterlimit="10" fill="none"/><path d="M205.02 137.148l2.945-9.058" stroke-width="1.2" stroke="#000" stroke-miterlimit="10" fill="none"/><path d="M207.965 128.09l2.95-9.055" stroke-width="1.2" stroke="#00f" stroke-miterlimit="10" fill="none"/><path d="M209.61 141.148l15.92 17.704" stroke-width="1.2" stroke="#000" stroke-miterlimit="10" fill="none"/><path d="M216.98 118.504l-7.96-8.852" stroke-width="1.2" stroke="#00f" stroke-miterlimit="10" fill="none"/><path d="M209.02 109.652l-7.96-8.85" stroke-width="1.2" stroke="#000" stroke-miterlimit="10" fill="none"/><path d="M213.98 113.004h7v11h-7zm0 0" fill="#fff"/><use xlink:href="#b" x="213.98" y="121.667" fill="#00f"/><path d="M201.06 100.8l-23.298 4.934M199.89 106.773l-18.636 3.95M225.53 158.852l-3.682 11.324" stroke-width="1.2" stroke="#000" stroke-miterlimit="10" fill="none"/><path d="M221.848 170.176l-3.688 11.32" stroke-width="1.2" stroke="#00f" stroke-miterlimit="10" fill="none"/><path d="M230.12 162.852l-2.948 9.058" stroke-width="1.2" stroke="#000" stroke-miterlimit="10" fill="none"/><path d="M227.172 171.91l-2.945 9.055" stroke-width="1.2" stroke="#00f" stroke-miterlimit="10" fill="none"/><path d="M248.828 153.914l-23.297 4.938" stroke-width="1.2" stroke="#000" stroke-miterlimit="10" fill="none"/><path d="M218.16 181.496l7.96 8.852" stroke-width="1.2" stroke="#00f" stroke-miterlimit="10" fill="none"/><path d="M226.12 190.348l7.962 8.85" stroke-width="1.2" stroke="#000" stroke-miterlimit="10" fill="none"/><path d="M215.16 175.996h7v11h-7zm0 0" fill="#fff"/><use xlink:href="#b" x="215.16" y="184.659" fill="#00f"/><path d="M234.082 199.2l23.297-4.934M235.25 193.227l18.637-3.95M257.38 194.266l7.37-22.645M264.75 171.62l-15.922-17.706M258.992 173.598l-12.738-14.164" stroke-width="1.2" stroke="#000" stroke-miterlimit="10" fill="none"/></g></svg>
